X: 24
T:William Tell Overture
% Nottingham Music Database
S:Rossini arr Hugh Barwell, via PR
M:4/4
L:1/4
K:C
G/2G/2|"C"GG/2G/2 GG|cd eG/2G/2|GG/2G/2 ce|"G7"dB GG/2G/2|
"C"GG/2G/2 GG|cd ec/2e/2|"G7"g2 -g/2f/2e/2d/2|"C"ce c:|
e/2e/2|"Am"ee/2e/2 ee|ea ea|"Am"ea ed|cB Ae/2e/2|
"Am"ee/2e/2 ee|ea ea|"Am"ea "D7"g^f|"G"g3d|"G7"dd/2d/2 de|fd2f|
"C"ec2e|"G7"dG2d|"G7"dd/2d/2 de|fd2f|"C"ec2e|"G"d"f"G "e"G"d"G
|:"C"GG/2G/2 GG|cd eG/2G/2|GG/2G/2 ce|"G7"dB GG/2G/2|
"C"GG/2G/2 GG|cd ec/2e/2|"G7"g2 -g/2f/2e/2d/2| [1"C"ce cG/2G/2:|
 [2"C"ce c2|:"C"cc/2c/2 cc|"E"e3d|"F"cB cA|"C"G/2A/2G/2A/2 G/2A/2B/2c/2|
"Dm"F/2G/2F/2G/2 "G7"F/2G/2A/2B/2|"C"E/2F/2E/2F/2 E/2F/2G/2A/2|\
 [1"D7"D/2E/2D/2E/2 D/2E/2D/2E/2|"G7"DG/2G/2 GG:|
 [2"Dm"DE "G7"G/2F/2E/2D/2|"C"C3||\
P:CODA
G/2G/2|"C"GG/2G/2 GG|cd eG/2G/2|
"C"GG/2G/2 GG|"C"ef gz|cd ez|"G7"EF Gz|z2"G7"B2|"C"c"G"B "C"c"G"B|
"C"c"G"B "C"c"G"B|"C"c2 zc/2c/2|"C"czcz|"C"c2 zz/2e/2|"C"e2 zz/2c/2|"C"c4||


